X: 433
T: Tingjian gege chang yisheng
L: 1/8
M: 2/4
K: G
B GA2- [I:setbarnb 1]| 
A B/ B/ e d/ B/ | 
A E G B/ d/ | 
G4 | 
B GA2- | 
A B/ B/ e d/ B/ | 
A E G B/ d/ | 
G G/ E/D2 |]

@@@ Tune index: 9307
